svg/u1f469_200d_1f9b1.svg

<svg viewBox="0 0 128 128" xmlns="http://www.w3.org/2000/svg">
  <path id="hair_1_" d="M111.93,50.19c3.74-3.35,1.97-7.85-1.18-10.03c1.92-4.86,0.35-7.81-4.04-9.46 c0.89-4.71-0.93-7.4-5.12-8.46c0.61-5.01-1.73-7.85-6.71-7.5c-0.45-4.87-3.17-7.01-7.81-5.65c-1.85-4.46-4.78-5.77-8.7-3.87 c-2.62-3.32-5.94-3.49-9.1-0.69c0,0-1.64-2.63-5.26-2.63s-5.24,2.55-5.24,2.55c-3.16-2.8-6.5-2.54-9.12,0.77 c-3.92-1.9-6.86-0.59-8.7,3.87c-4.64-1.36-7.36,0.78-7.81,5.65c-4.98-0.35-7.32,2.49-6.71,7.5c-4.19,1.06-6.02,3.74-5.12,8.46 c-4.39,1.65-5.96,4.6-4.04,9.46c-3.15,2.18-4.91,6.68-1.18,10.03c-3.53,3.66-3.27,7.17,0.77,10.56c-2.15,3.59-1.24,6.75,2.74,9.47 c-1.95,3.96-0.4,7.11,4.67,9.43c-1.05,2.81,0.51,8.35,7.16,8.51c0,0-0.6,7.58,8.92,6.27c0,0,1.43,6.01,9.84,4.06 c0,0,4.9,6.93,13.78,7.12c0.02,0,0.03,0,0.05,0c0.02,0,0.03,0,0.05,0c8.88-0.19,13.78-7.12,13.78-7.12 c8.41,1.95,9.84-4.06,9.84-4.06c9.53,1.3,8.92-6.27,8.92-6.27c6.64-0.16,8.21-5.7,7.15-8.51c5.07-2.32,6.62-5.47,4.67-9.43 c3.98-2.73,4.89-5.89,2.74-9.47C115.2,57.37,115.46,53.85,111.93,50.19z" fill="#543930"/>
  <g id="shirt">
    <linearGradient id="SVGID_1_" gradientTransform="matrix(1 0 0 -1 0 130)" gradientUnits="userSpaceOnUse" x1="64" x2="64" y1="35.7586" y2="7.9996">
      <stop offset="0" stop-color="#651FFF"/>
      <stop offset="0.7047" stop-color="#5914F2"/>
      <stop offset="1" stop-color="#530EEB"/>
    </linearGradient>
    <path d="M114.39,119.89v4.07H13.61v-4.07c0-12.39,12.12-19.81,27.92-23.2 c7.01-1.52,14.75-2.23,22.47-2.24h0.12c7.66,0,15.31,0.79,22.24,2.37C102.25,100.42,114.39,108.14,114.39,119.89z" fill="url(#SVGID_1_)"/>
  </g>
  <path id="neck" d="M72.89,90.08H55.1v9.98c0,4.51,3.62,8.17,8.09,8.17h1.62c4.46,0,8.09-3.66,8.09-8.17 L72.89,90.08L72.89,90.08z" fill="#E59600"/>
  <path id="head" d="M64,16.69c-16.84,0-32.44,11.01-32.44,38.14c0,21.79,13.21,34.67,24.71,38.83 c2.74,0.99,5.39,1.49,7.74,1.49c2.33,0,4.96-0.49,7.69-1.47c11.51-4.14,24.75-17.03,24.75-38.84C96.44,27.7,80.84,16.69,64,16.69z" fill="#FFCA28"/>
  <g id="eyebrows">
    <path d="M54.99,49.82c-0.91-1.23-3.01-3.01-7.08-3.01s-6.18,1.79-7.08,3.01c-0.4,0.54-0.3,1.17-0.02,1.55 c0.26,0.35,1.02,0.68,1.86,0.39s2.49-1.16,5.24-1.18c2.75,0.02,4.4,0.89,5.24,1.18s1.61-0.03,1.86-0.39 C55.3,50.99,55.39,50.36,54.99,49.82z" fill="#6D4C41"/>
    <path d="M87.17,49.82c-0.91-1.23-3.01-3.01-7.08-3.01s-6.18,1.79-7.08,3.01c-0.4,0.54-0.3,1.17-0.02,1.55 c0.25,0.35,1.02,0.68,1.86,0.39s2.49-1.16,5.24-1.18c2.75,0.02,4.4,0.89,5.24,1.18s1.61-0.03,1.86-0.39 C87.46,50.99,87.57,50.36,87.17,49.82z" fill="#6D4C41"/>
  </g>
  <g id="eyes">
    <ellipse cx="47.91" cy="58.87" fill="#404040" rx="4.77" ry="5.04"/>
    <ellipse cx="80.09" cy="58.87" fill="#404040" rx="4.77" ry="5.04"/>
  </g>
  <path id="nose_6_" d="M67.74,68.05c-0.1-0.04-0.21-0.07-0.31-0.08h-6.84c-0.11,0.01-0.21,0.04-0.31,0.08 c-0.62,0.26-0.96,0.91-0.67,1.61s1.65,2.66,4.4,2.66c2.74,0,4.1-1.96,4.4-2.66C68.7,68.97,68.36,68.31,67.74,68.05z" fill="#E59600"/>
  <path id="mouth_6_" d="M72.14,76.14c-3.08,1.87-13.18,1.87-16.26,0c-1.77-1.07-3.57,0.57-2.84,2.21 c0.72,1.61,6.24,5.36,11,5.36c4.77,0,10.2-3.75,10.93-5.36C75.7,76.71,73.91,75.06,72.14,76.14z" fill="#795548"/>
  <path id="hair" d="M106.75,50.38c3.33-2.3,6.17-6.75-1.13-8.46c4.36-5.42,4.15-8.68-3.2-7.97 c2.99-5.98,2-9.44-4.79-8.58c1.02-2.11,2.22-5.34,0.29-7s-5.94,0.17-5.94,0.17s0.56-5-1.41-6.39c-1.97-1.4-5.99,1.07-5.99,1.07 s0.01-4.03-2.33-5.12c-2.34-1.09-4.62,2.21-4.62,2.21c-1.41-5.4-6.42-5.06-8.65-1.61c0,0-1.69-3.37-4.98-3.41 c-3.28,0.04-4.89,3.39-4.89,3.39c-2.23-3.46-7.33-3.78-8.74,1.62c0,0-2.28-3.31-4.62-2.21c-2.34,1.09-2.33,5.12-2.33,5.12 s-4.01-2.47-5.99-1.07c-1.97,1.4-1.41,6.39-1.41,6.39s-4.01-1.82-5.94-0.17s-0.73,4.89,0.29,7c-6.78-0.86-7.77,2.6-4.78,8.58 c-7.35-0.71-7.55,2.55-3.2,7.97c-6.61,1.21-5.47,4.8-0.63,8.83c-0.06,0.04,0.83,4.06,1.81,6.06c1.81,3.66,7.52,10.18,7.52,10.18 c1.46-1.49,2.55-3.85,2.73-5.43c0.31-2.69-0.37-5.42-0.37-5.42s4.55-3.39,2.58-9.35c2.74-0.35,5.06-2.78,5.29-5.53 c0,0,1.83,1.55,5.03,1.72c2.68,0.14,5.04-1.4,6.42-3.52c0.96,0.55,2.07,0.87,3.25,0.87c2.97,0,5.48-1.97,6.37-4.7 c1.23,1.5,3.07,2.45,5.14,2.45c0.87,0,2.53-0.33,3.29-0.64c0,0,0.38,3.47,5.28,4.07c4.7,0.57,6.79-4,6.79-4s0.5,5.42,8.31,6.79 c0,0-0.98,1.84-0.22,4.56c0.43,1.54,3.26,3.46,3.26,3.46c-3.11,5.64,2.69,12.34,2.69,12.34C106.9,59.61,106.75,50.38,106.75,50.38z" fill="#543930"/>
  <radialGradient id="hairHighlights_1_" cx="63.798" cy="46.819" gradientTransform="matrix(1 -1.897420e-03 1.897420e-03 1 -0.0955 0.1232)" gradientUnits="userSpaceOnUse" r="49.8363">
    <stop offset="0.7247" stop-color="#6D4C41" stop-opacity="0"/>
    <stop offset="1" stop-color="#6D4C41"/>
  </radialGradient>
  <path id="hairHighlights" d="M111.91,50.17c3.72-3.36,1.96-7.85-1.2-10.03 c1.9-4.86,0.34-7.81-4.06-9.45c0.88-4.71-0.95-7.39-5.15-8.45c0.6-5-1.74-7.85-6.71-7.49c-0.47-4.86-3.18-6.99-7.83-5.63 c-1.85-4.46-4.79-5.77-8.71-3.85c-2.63-3.31-5.95-3.48-9.1-0.67c0,0-1.65-2.64-5.27-2.63c-3.62,0.01-5.24,2.56-5.24,2.56 c-3.18-2.79-6.5-2.53-9.12,0.8c-3.92-1.9-6.86-0.58-8.69,3.89c-4.65-1.35-7.36,0.79-7.8,5.65c-4.98-0.34-7.32,2.51-6.7,7.51 c-4.19,1.08-6.01,3.76-5.11,8.47c-4.39,1.66-5.94,4.61-4.02,9.47c-3.15,2.19-4.9,6.69-1.16,10.03c-3.52,3.66-3.26,7.18,0.8,10.56 c-2.15,3.59-1.24,6.74,2.75,9.46c-1.94,3.96-0.38,7.11,4.69,9.42c-1.04,2.82,0.53,8.35,7.17,8.51c0,0-0.59,7.57,8.94,6.25 c0,0,0.26,1.08,1.2,2.18c4.3-0.94,8.88-1.58,13.57-1.94l0-1.58C44.13,88.72,32,76.32,31.59,55.85c-0.01-0.14,0-0.29-0.01-0.43 c0-0.18-0.01-0.35-0.01-0.53c0,0,0-0.01,0-0.01c-0.01-0.33-0.02-0.66-0.02-0.99c-0.05-27.13,15.53-38.17,32.37-38.2 c16.51-0.03,31.85,10.54,32.48,36.54c0.03,0.83,0.05,1.68,0.05,2.55C96.49,75.84,84.17,88.6,72.96,93.2l0,1.58 c4.65,0.36,9.19,1.03,13.46,1.99c1.03-1.14,1.31-2.31,1.31-2.31c9.53,1.28,8.92-6.29,8.92-6.29c6.64-0.18,8.19-5.72,7.13-8.53 c5.06-2.33,6.61-5.48,4.65-9.44c3.97-2.74,4.88-5.89,2.71-9.48C115.2,57.33,115.45,53.81,111.91,50.17z" fill="url(#hairHighlights_1_)"/>
</svg>

<svg viewBox="0 0 128 128" xmlns="http://www.w3.org/2000/svg">
  <defs>
    <radialGradient id="hairHighlights_1_" cx="63.702267" cy="46.942018" gradientTransform="matrix(1 -0.001897 0.001897 1 0 0)" gradientUnits="userSpaceOnUse" r="49.8363">
      <stop offset="0.7247" stop-color="#6D4C41" stop-opacity="0"/>
      <stop offset="1" stop-color="#6D4C41"/>
    </radialGradient>
    <linearGradient id="SVGID_1_" gradientTransform="matrix(1 0 0 -1 0 0)" gradientUnits="userSpaceOnUse" x1="64" x2="64" y1="-94.2414" y2="-122.0004">
      <stop offset="0" stop-color="#651FFF"/>
      <stop offset="0.7047" stop-color="#5914F2"/>
      <stop offset="1" stop-color="#530EEB"/>
    </linearGradient>
  </defs>
  <path id="hair_1_" d="M111.93,50.19 C115.67,46.84 113.9,42.34 110.75,40.16 C112.67,35.3 111.1,32.35 106.71,30.7 C107.6,25.99 105.78,23.3 101.59,22.24 C102.2,17.23 99.86,14.39 94.88,14.74 C94.43,9.87 91.71,7.73 87.07,9.09 C85.22,4.63 82.29,3.32 78.37,5.22 C75.75,1.9 72.43,1.73 69.27,4.53 C69.27,4.53 67.63,1.9 64.01,1.9 C60.39,1.9 58.77,4.45 58.77,4.45 C55.61,1.65 52.27,1.91 49.65,5.22 C45.73,3.32 42.79,4.63 40.95,9.09 C36.31,7.73 33.59,9.87 33.14,14.74 C28.16,14.39 25.82,17.23 26.43,22.24 C22.24,23.3 20.41,25.98 21.31,30.7 C16.92,32.35 15.35,35.3 17.27,40.16 C14.12,42.34 12.36,46.84 16.09,50.19 C12.56,53.85 12.82,57.36 16.86,60.75 C14.71,64.34 15.62,67.5 19.6,70.22 C17.65,74.18 19.2,77.33 24.27,79.65 C23.22,82.46 24.78,88 31.43,88.16 C31.43,88.16 30.83,95.74 40.35,94.43 C40.35,94.43 41.78,100.44 50.19,98.49 C50.19,98.49 55.09,105.42 63.97,105.61 C63.99,105.61 64,105.61 64.02,105.61 C64.04,105.61 64.05,105.61 64.07,105.61 C72.95,105.42 77.85,98.49 77.85,98.49 C86.26,100.44 87.69,94.43 87.69,94.43 C97.22,95.73 96.61,88.16 96.61,88.16 C103.25,88 104.82,82.46 103.76,79.65 C108.83,77.33 110.38,74.18 108.43,70.22 C112.41,67.49 113.32,64.33 111.17,60.75 C115.2,57.37 115.46,53.85 111.93,50.19 Z" fill="#543930"/>
  <path d="M114.39,119.89 L114.39,123.96 L13.61,123.96 L13.61,119.89 C13.61,107.5 25.73,100.08 41.53,96.69 C48.54,95.17 56.28,94.46 64,94.45 L64.12,94.45 C71.78,94.45 79.43,95.24 86.36,96.82 C102.25,100.42 114.39,108.14 114.39,119.89 Z" fill="url(#SVGID_1_)"/>
  <path id="neck" d="M72.89,90.08 L55.1,90.08 L55.1,100.06 C55.1,104.57 58.72,108.23 63.19,108.23 L64.81,108.23 C69.27,108.23 72.9,104.57 72.9,100.06 L72.89,90.08 L72.89,90.08 Z" fill="#E59600"/>
  <path id="head" d="M64,16.69 C47.16,16.69 31.56,27.7 31.56,54.83 C31.56,76.62 44.77,89.5 56.27,93.66 C59.01,94.65 61.66,95.15 64.01,95.15 C66.34,95.15 68.97,94.66 71.7,93.68 C83.21,89.54 96.45,76.65 96.45,54.84 C96.44,27.7 80.84,16.69 64,16.69 Z" fill="#FFCA28"/>
  <path d="M54.99,49.82 C54.08,48.59 51.98,46.81 47.91,46.81 C43.84,46.81 41.73,48.6 40.83,49.82 C40.43,50.36 40.53,50.99 40.81,51.37 C41.07,51.72 41.83,52.05 42.67,51.76 C43.51,51.47 45.16,50.6 47.91,50.58 C50.66,50.6 52.31,51.47 53.15,51.76 C53.99,52.05 54.76,51.73 55.01,51.37 C55.3,50.99 55.39,50.36 54.99,49.82 Z" fill="#6D4C41"/>
  <path d="M87.17,49.82 C86.26,48.59 84.16,46.81 80.09,46.81 C76.02,46.81 73.91,48.6 73.01,49.82 C72.61,50.36 72.71,50.99 72.99,51.37 C73.24,51.72 74.01,52.05 74.85,51.76 C75.69,51.47 77.34,50.6 80.09,50.58 C82.84,50.6 84.49,51.47 85.33,51.76 C86.17,52.05 86.94,51.73 87.19,51.37 C87.46,50.99 87.57,50.36 87.17,49.82 Z" fill="#6D4C41"/>
  <path d="M52.68,58.87 A4.77 5.04 0 1 1 43.14,58.87 A4.77 5.04 0 1 1 52.68,58.87 Z" fill="#404040"/>
  <path d="M84.86,58.87 A4.77 5.04 0 1 1 75.32,58.87 A4.77 5.04 0 1 1 84.86,58.87 Z" fill="#404040"/>
  <path id="nose_6_" d="M67.74,68.05 C67.64,68.01 67.53,67.98 67.43,67.97 L60.59,67.97 C60.48,67.98 60.38,68.01 60.28,68.05 C59.66,68.31 59.32,68.96 59.61,69.66 C59.9,70.36 61.26,72.32 64.01,72.32 C66.75,72.32 68.11,70.36 68.41,69.66 C68.7,68.97 68.36,68.31 67.74,68.05 Z" fill="#E59600"/>
  <path id="mouth_6_" d="M72.14,76.14 C69.06,78.01 58.96,78.01 55.88,76.14 C54.11,75.07 52.31,76.71 53.04,78.35 C53.76,79.96 59.28,83.71 64.04,83.71 C68.81,83.71 74.24,79.96 74.97,78.35 C75.7,76.71 73.91,75.06 72.14,76.14 Z" fill="#795548"/>
  <path id="hair" d="M106.75,50.38 C110.08,48.08 112.92,43.63 105.62,41.92 C109.98,36.5 109.77,33.24 102.42,33.95 C105.41,27.97 104.42,24.51 97.63,25.37 C98.65,23.26 99.85,20.03 97.92,18.37 C95.99,16.71 91.98,18.54 91.98,18.54 C91.98,18.54 92.54,13.54 90.57,12.15 C88.6,10.75 84.58,13.22 84.58,13.22 C84.58,13.22 84.59,9.19 82.25,8.1 C79.91,7.01 77.63,10.31 77.63,10.31 C76.22,4.91 71.21,5.25 68.98,8.7 C68.98,8.7 67.29,5.33 64,5.29 C60.72,5.33 59.11,8.68 59.11,8.68 C56.88,5.22 51.78,4.9 50.37,10.3 C50.37,10.3 48.09,6.99 45.75,8.09 C43.41,9.18 43.42,13.21 43.42,13.21 C43.42,13.21 39.41,10.74 37.43,12.14 C35.46,13.54 36.02,18.53 36.02,18.53 C36.02,18.53 32.01,16.71 30.08,18.36 C28.15,20.01 29.35,23.25 30.37,25.36 C23.59,24.5 22.6,27.96 25.59,33.94 C18.24,33.23 18.04,36.49 22.39,41.91 C15.78,43.12 16.92,46.71 21.76,50.74 C21.7,50.78 22.59,54.8 23.57,56.8 C25.38,60.46 31.09,66.98 31.09,66.98 C32.55,65.49 33.64,63.13 33.82,61.55 C34.13,58.86 33.45,56.13 33.45,56.13 C33.45,56.13 38,52.74 36.03,46.78 C38.77,46.43 41.09,44 41.32,41.25 C41.32,41.25 43.15,42.8 46.35,42.97 C49.03,43.11 51.39,41.57 52.77,39.45 C53.73,40 54.84,40.32 56.02,40.32 C58.99,40.32 61.5,38.35 62.39,35.62 C63.62,37.12 65.46,38.07 67.53,38.07 C68.4,38.07 70.06,37.74 70.82,37.43 C70.82,37.43 71.2,40.9 76.1,41.5 C80.8,42.07 82.89,37.5 82.89,37.5 C82.89,37.5 83.39,42.92 91.2,44.29 C91.2,44.29 90.22,46.13 90.98,48.85 C91.41,50.39 94.24,52.31 94.24,52.31 C91.13,57.95 96.93,64.65 96.93,64.65 C106.9,59.61 106.75,50.38 106.75,50.38 Z" fill="#543930"/>
  <path id="hairHighlights" d="M111.91,50.17 C115.63,46.81 113.87,42.32 110.71,40.14 C112.61,35.28 111.05,32.33 106.65,30.69 C107.53,25.98 105.7,23.3 101.5,22.24 C102.1,17.24 99.76,14.39 94.79,14.75 C94.32,9.89 91.61,7.76 86.96,9.12 C85.11,4.66 82.17,3.35 78.25,5.27 C75.62,1.96 72.3,1.79 69.15,4.6 C69.15,4.6 67.5,1.96 63.88,1.97 C60.26,1.98 58.64,4.53 58.64,4.53 C55.46,1.74 52.14,2 49.52,5.33 C45.6,3.43 42.66,4.75 40.83,9.22 C36.18,7.87 33.47,10.01 33.03,14.87 C28.05,14.53 25.71,17.38 26.33,22.38 C22.14,23.46 20.32,26.14 21.22,30.85 C16.83,32.51 15.28,35.46 17.2,40.32 C14.05,42.51 12.3,47.01 16.04,50.35 C12.52,54.01 12.78,57.53 16.84,60.91 C14.69,64.5 15.6,67.65 19.59,70.37 C17.65,74.33 19.21,77.48 24.28,79.79 C23.24,82.61 24.81,88.14 31.45,88.3 C31.45,88.3 30.86,95.87 40.39,94.55 C40.39,94.55 40.65,95.63 41.59,96.73 C45.89,95.79 50.47,95.15 55.16,94.79 L55.16,93.21 C44.13,88.72 32,76.32 31.59,55.85 C31.58,55.71 31.59,55.56 31.58,55.42 C31.58,55.24 31.57,55.07 31.57,54.89 C31.57,54.89 31.57,54.88 31.57,54.88 C31.56,54.55 31.55,54.22 31.55,53.89 C31.5,26.76 47.08,15.72 63.92,15.69 C80.43,15.66 95.77,26.23 96.4,52.23 C96.43,53.06 96.45,53.91 96.45,54.78 C96.49,75.84 84.17,88.6 72.96,93.2 L72.96,94.78 C77.61,95.14 82.15,95.81 86.42,96.77 C87.45,95.63 87.73,94.46 87.73,94.46 C97.26,95.74 96.65,88.17 96.65,88.17 C103.29,87.99 104.84,82.45 103.78,79.64 C108.84,77.31 110.39,74.16 108.43,70.2 C112.4,67.46 113.31,64.31 111.14,60.72 C115.2,57.33 115.45,53.81 111.91,50.17 Z" fill="url(#hairHighlights_1_)"/>
</svg>
